public/avatar/body/23.svg

<svg xmlns:xlink="http://www.w3.org/1999/xlink" height="82" width="84.85" xmlns="http://www.w3.org/2000/svg"><g transform="translate(37.4 42.25)"><use height="38" transform="translate(-11.95 -17.45)" width="32.05" xlink:href="#a"/><use height="28.55" transform="translate(-12.5 -17.95)" width="33.1" xlink:href="#b"/><use height="20.9" transform="translate(-8.35 -1.15)" width="25.5" xlink:href="#c"/><use height="12.55" transform="matrix(1.0261 0 0 1 3.487 9.7)" width="16.3" xlink:href="#d"/><use height="12.55" transform="matrix(-1.0261 0 0 1 4.513 9.7)" width="16.3" xlink:href="#d"/><use height="5" transform="translate(-1.4 11.45)" width="11.8" xlink:href="#e"/></g><defs><use height="38" width="32.05" xlink:href="#f" id="a"/><use height="28.55" width="33.1" xlink:href="#g" id="b"/><use height="2.4" transform="matrix(10.6042 0 0 8.7083 .025 0)" width="2.4" xlink:href="#h" id="c"/><use height="12.55" width="16.3" xlink:href="#i" id="d"/><use height="5" width="11.8" xlink:href="#j" id="e"/><path d="M27.35 7.4q2.15 4.15 3.55 8.75 1.45 4.7 1.15 9.5-.35 4.95-4.2 8.1-3.8 3.2-8.75 4.05l-2.6.2q-3.6 0-7.05-1.15-4.65-1.6-7.1-5.5Q-.2 27.4.05 23q.2-4.4 2-9.3Q3.85 8.75 7 5.05 10.1 1.3 14.7.1l1.8-.1q1.9.05 3.7.8 4.75 2.05 7.15 6.6" fill="#390" fill-rule="evenodd" transform="translate(-.05)" id="f"/><path d="m31.8 27.55.25-1.9q.3-4.8-1.15-9.5-1.4-4.6-3.55-8.75-2.4-4.55-7.15-6.6-2.65-1.1-5.5-.7Q10.1 1.3 7 5.05q-3.15 3.7-4.95 8.65-1.8 4.9-2 9.3-.15 2.35.55 4.55" fill="none" stroke="#000" stroke-linecap="round" stroke-linejoin="round" transform="translate(.5 .5)" id="g"/><path d="M.85-.85q.35.35.35.85T.85.85Q.5 1.2 0 1.2T-.85.85Q-1.2.5-1.2 0t.35-.85Q-.5-1.2 0-1.2t.85.35" fill="#fff" fill-rule="evenodd" transform="translate(1.2 1.2)" id="h"/><g id="i"><path d="M0 5.85V3.6l5.9-.55q2.25-.35 6.2-1.8L13.3.8l2-.8-.05.4-.4 1.15-.3.65v.05q-2.85 1.5-6.3 2.55Q5.2 5.75 2 5.85H0" fill="#2d7401" fill-rule="evenodd" transform="translate(.5 .5)"/><path d="M14.55 2.25Q13.45 4.4 11.4 6.1 8 8.95 3.7 9.95 2.4 8.75 2 5.85q3.2-.1 6.25-1.05 3.45-1.05 6.3-2.55" fill="#390" fill-rule="evenodd" transform="translate(.5 .5)"/><path d="M3.7 9.95 1.15 11.3 0 11.55v-5.7h2q.4 2.9 1.7 4.1" fill="#51d301" fill-rule="evenodd" transform="translate(.5 .5)"/><path d="M14.55 2.25Q13.45 4.4 11.4 6.1 8 8.95 3.7 9.95L1.15 11.3 0 11.55M0 3.6l5.9-.55q2.25-.35 6.2-1.8L13.3.8l2-.8-.05.4-.4 1.15-.3.65" fill="none" stroke="#000" stroke-linecap="round" stroke-linejoin="round" transform="translate(.5 .5)"/></g><g id="j"><path d="M10.8 4H0V0h10.8v4" fill="#fc0" fill-rule="evenodd" transform="translate(.5 .5)"/><path d="M10.8 4H0V0h10.8v4Z" fill="none" stroke="#000" stroke-linecap="round" stroke-linejoin="round" transform="translate(.5 .5)"/></g></defs></svg>

<?xml version="1.0" encoding="UTF-8" standalone="no"?>
<svg xmlns:xlink="http://www.w3.org/1999/xlink" height="82.0px" width="84.85px" xmlns="http://www.w3.org/2000/svg">
  <g transform="matrix(1.0, 0.0, 0.0, 1.0, 37.4, 42.25)">
    <use height="38.0" transform="matrix(1.0, 0.0, 0.0, 1.0, -11.95, -17.45)" width="32.05" xlink:href="#sprite0"/>
    <use height="28.55" transform="matrix(1.0, 0.0, 0.0, 1.0, -12.5, -17.95)" width="33.1" xlink:href="#sprite1"/>
    <use height="20.9" transform="matrix(1.0, 0.0, 0.0, 1.0, -8.35, -1.15)" width="25.5" xlink:href="#sprite2"/>
    <use height="12.55" transform="matrix(1.0261, 0.0, 0.0, 1.0, 3.4869, 9.7)" width="16.3" xlink:href="#sprite3"/>
    <use height="12.55" transform="matrix(-1.0261, 0.0, 0.0, 1.0, 4.5131, 9.7)" width="16.3" xlink:href="#sprite3"/>
    <use height="5.0" transform="matrix(1.0, 0.0, 0.0, 1.0, -1.4, 11.45)" width="11.8" xlink:href="#sprite4"/>
  </g>
  <defs>
    <g id="sprite0" transform="matrix(1.0, 0.0, 0.0, 1.0, -0.05, 0.0)">
      <use height="38.0" transform="matrix(1.0, 0.0, 0.0, 1.0, 0.05, 0.0)" width="32.05" xlink:href="#shape0"/>
    </g>
    <g id="shape0" transform="matrix(1.0, 0.0, 0.0, 1.0, -0.05, 0.0)">
      <path d="M27.35 7.4 Q29.5 11.55 30.9 16.15 32.35 20.85 32.05 25.65 31.7 30.6 27.85 33.75 24.05 36.95 19.1 37.8 L16.5 38.0 Q12.9 38.0 9.45 36.85 4.8 35.25 2.35 31.35 -0.2 27.4 0.05 23.0 0.25 18.6 2.05 13.7 3.85 8.75 7.0 5.05 10.1 1.3 14.7 0.1 L16.5 0.0 Q18.4 0.05 20.2 0.8 24.95 2.85 27.35 7.4" fill="#339900" fill-rule="evenodd" stroke="none"/>
    </g>
    <g id="sprite1" transform="matrix(1.0, 0.0, 0.0, 1.0, 0.5, 0.5)">
      <use height="28.55" transform="matrix(1.0, 0.0, 0.0, 1.0, -0.5, -0.5)" width="33.1" xlink:href="#shape1"/>
    </g>
    <g id="shape1" transform="matrix(1.0, 0.0, 0.0, 1.0, 0.5, 0.5)">
      <path d="M31.8 27.55 L32.05 25.65 Q32.35 20.85 30.9 16.15 29.5 11.55 27.35 7.4 24.95 2.85 20.2 0.8 17.55 -0.3 14.7 0.1 10.1 1.3 7.0 5.05 3.85 8.75 2.05 13.7 0.25 18.6 0.05 23.0 -0.1 25.35 0.6 27.55" fill="none" stroke="#000000" stroke-linecap="round" stroke-linejoin="round" stroke-width="1.0"/>
    </g>
    <g id="sprite2" transform="matrix(1.0, 0.0, 0.0, 1.0, 0.0, 0.0)">
      <use height="2.4" transform="matrix(10.6042, 0.0, 0.0, 8.7083, 0.025, 0.0)" width="2.4" xlink:href="#shape2"/>
    </g>
    <g id="shape2" transform="matrix(1.0, 0.0, 0.0, 1.0, 1.2, 1.2)">
      <path d="M0.85 -0.85 Q1.2 -0.5 1.2 0.0 1.2 0.5 0.85 0.85 0.5 1.2 0.0 1.2 -0.5 1.2 -0.85 0.85 -1.2 0.5 -1.2 0.0 -1.2 -0.5 -0.85 -0.85 -0.5 -1.2 0.0 -1.2 0.5 -1.2 0.85 -0.85" fill="#ffffff" fill-rule="evenodd" stroke="none"/>
    </g>
    <g id="sprite3" transform="matrix(1.0, 0.0, 0.0, 1.0, 0.5, 0.5)">
      <use height="12.55" transform="matrix(1.0, 0.0, 0.0, 1.0, -0.5, -0.5)" width="16.3" xlink:href="#shape3"/>
    </g>
    <g id="shape3" transform="matrix(1.0, 0.0, 0.0, 1.0, 0.5, 0.5)">
      <path d="M0.0 5.85 L0.0 3.6 5.9 3.05 Q8.15 2.7 12.1 1.25 L13.3 0.8 15.3 0.0 15.25 0.4 14.85 1.55 14.55 2.2 14.55 2.25 Q11.7 3.75 8.25 4.8 5.2 5.75 2.0 5.85 L0.9 5.85 0.0 5.85" fill="#2d7401" fill-rule="evenodd" stroke="none"/>
      <path d="M14.55 2.25 Q13.45 4.4 11.4 6.1 8.0 8.95 3.7 9.95 2.4 8.75 2.0 5.85 5.2 5.75 8.25 4.8 11.7 3.75 14.55 2.25" fill="#339900" fill-rule="evenodd" stroke="none"/>
      <path d="M3.7 9.95 L1.15 11.3 0.0 11.55 0.0 5.85 0.9 5.85 2.0 5.85 Q2.4 8.75 3.7 9.95" fill="#51d301" fill-rule="evenodd" stroke="none"/>
      <path d="M14.55 2.25 Q13.45 4.4 11.4 6.1 8.0 8.95 3.7 9.95 L1.15 11.3 0.0 11.55 M0.0 3.6 L5.9 3.05 Q8.15 2.7 12.1 1.25 L13.3 0.8 15.3 0.0 15.25 0.4 14.85 1.55 14.55 2.2" fill="none" stroke="#000000" stroke-linecap="round" stroke-linejoin="round" stroke-width="1.0"/>
    </g>
    <g id="sprite4" transform="matrix(1.0, 0.0, 0.0, 1.0, 0.5, 0.5)">
      <use height="5.0" transform="matrix(1.0, 0.0, 0.0, 1.0, -0.5, -0.5)" width="11.8" xlink:href="#shape4"/>
    </g>
    <g id="shape4" transform="matrix(1.0, 0.0, 0.0, 1.0, 0.5, 0.5)">
      <path d="M10.8 4.0 L0.0 4.0 0.0 0.0 10.8 0.0 10.8 4.0" fill="#ffcc00" fill-rule="evenodd" stroke="none"/>
      <path d="M10.8 4.0 L0.0 4.0 0.0 0.0 10.8 0.0 10.8 4.0 Z" fill="none" stroke="#000000" stroke-linecap="round" stroke-linejoin="round" stroke-width="1.0"/>
    </g>
  </defs>
</svg>
